icon_installer/data/icons/scalable/actions/show-pda-symbolic.svg

<?xml version="1.0" encoding="UTF-8"?>
<svg height="16px" viewBox="0 0 16 16" width="16px" xmlns="http://www.w3.org/2000/svg">
    <g fill="#222222">
        <path d="m 4.183594 0 c -1.796875 0 -3.152344 1.339844 -3.152344 3 v 10 c 0 1.660156 1.355469 3 3.152344 3 h 7.570312 c 1.800782 0 3.246094 -1.339844 3.246094 -3 v -6.589844 l -1.976562 2.878906 v 3.710938 c 0 0.554688 -0.480469 1 -1.082032 1 h -7.914062 c -0.601563 0 -1.019532 -0.445312 -1.019532 -1 v -10 c 0 -0.554688 0.417969 -1 1.019532 -1 h 7.660156 l 1.320312 -1.75 c -0.382812 -0.144531 -0.8125 -0.25 -1.253906 -0.25 z m 0 0"/>
        <path d="m 14.039062 1.03125 s -2.515624 3.507812 -4.039062 5.96875 l -1.40625 1.167969 l 0.039062 1.574219 l -0.765624 1.246093 l 0.695312 -0.003906 l 0.742188 -0.582031 l 1.675781 -0.460938 l 0.59375 -1.484375 l 4.183593 -6.363281 z m 0 0"/>
    </g>
</svg>

<svg xmlns="http://www.w3.org/2000/svg" width="16" height="16"><g fill="#222"><path d="M4.184 0C2.387 0 1.03 1.34 1.03 3v10c0 1.66 1.356 3 3.153 3h7.57c1.8 0 3.246-1.34 3.246-3V6.41l-1.977 2.88V13c0 .555-.48 1-1.082 1H4.027c-.601 0-1.02-.445-1.02-1V3c0-.555.419-1 1.02-1h7.66l1.32-1.75A3.585 3.585 0 0 0 11.755 0zm0 0"/><path d="M14.04 1.031S11.522 4.54 10 7L8.594 8.168l.039 1.574-.766 1.246.695-.004.743-.582 1.675-.46.594-1.485 4.184-6.363zm0 0"/></g></svg>
